build/flags/Barbados.svg

<svg xmlns="http://www.w3.org/2000/svg" fill="none" viewBox="0 0 28 28" focusable="false"><defs><linearGradient id="Barbados_svg__c" x1="0" x2="0" y1="4" y2="24" gradientUnits="userSpaceOnUse"><stop offset="0" stop-color="#1031C6"/><stop offset="1" stop-color="#0522A5"/></linearGradient><filter id="Barbados_svg__a"><feColorMatrix values="0 0 0 0 1 0 0 0 0 1 0 0 0 0 1 0 0 0 1 0"/></filter></defs><mask id="Barbados_svg__b" width="28" height="20" x="0" y="4" maskUnits="userSpaceOnUse"><g filter="url(#Barbados_svg__a)"><rect width="28" height="20" y="4" fill="#FFF" rx="3"/><rect width="28" height="20" y="4" stroke="#969696" stroke-opacity="0" stroke-width="0" rx="3"/></g></mask><path fill="none" d="M0 0H28V28H0z"/><rect width="28" height="20" y="4" fill="#FFF" rx="3"/><rect width="28" height="20" y="4" rx="3"/><g mask="url(#Barbados_svg__b)"><path fill="url(#Barbados_svg__c)" d="M0 4H28V24H0z"/><path d="M0 4H28V24H0z"/><path fill="#08379D" d="M13.333 4H28V24H13.333z"/><path d="M13.333 4H28V24H13.333z"/><path fill="#08379D" fill-rule="evenodd" d="M0 24L9.33333 24L9.33333 4L0 4L0 24Z"/><path d="M9.33333 24L9.33333 4L0 4L0 24L9.33333 24Z"/><path fill="#FFCC50" fill-rule="evenodd" d="M9.33331 24L18.6666 24L18.6666 4L9.33331 4L9.33331 24Z"/><path d="M18.6666 24L18.6666 4L9.33331 4L9.33331 24L18.6666 24Z"/><path fill="#262626" fill-rule="evenodd" d="M13.7456 10.4135C13.8794 10.2168 14.1702 10.2195 14.3003 10.4186L14.9965 11.4844C15.1413 11.7061 14.9822 12 14.7174 12L14.7017 12C14.5044 12 14.3504 12.1703 14.37 12.3665L14.6366 15.0332C14.6537 15.2036 14.7971 15.3333 14.9683 15.3333L15.1963 15.3333C15.2841 15.3333 15.3683 15.2987 15.4307 15.237L15.9011 14.7717C15.9644 14.7091 16 14.6237 16 14.5347L16 13.4714C16 13.383 15.9649 13.2982 15.9024 13.2357L15.7147 13.048C15.5395 12.8728 15.6099 12.5745 15.845 12.4961L16.798 12.1784C17.0387 12.0982 17.2771 12.3055 17.2313 12.555L16.7397 15.2277C16.7271 15.2964 16.6932 15.3594 16.6429 15.4077L15.4301 16.5736C15.368 16.6333 15.2852 16.6667 15.1991 16.6667L15 16.6667C14.8159 16.6667 14.6667 16.8159 14.6667 17L14.6667 17.6667C14.6667 17.8508 14.5174 18 14.3333 18L13.6667 18C13.4826 18 13.3333 17.8508 13.3333 17.6667L13.3333 17C13.3333 16.8159 13.1841 16.6667 13 16.6667L12.8047 16.6667C12.7163 16.6667 12.6315 16.6315 12.569 16.569L11.4047 15.4047C11.3582 15.3582 11.3264 15.2989 11.3135 15.2344L10.7793 12.5632C10.7291 12.3123 10.9688 12.1007 11.2116 12.1816L12.155 12.4961C12.3901 12.5745 12.4605 12.8728 12.2853 13.048L12.0976 13.2357C12.0351 13.2982 12 13.383 12 13.4714L12 14.5347C12 14.6237 12.0356 14.7091 12.0989 14.7717L12.5693 15.237C12.6317 15.2987 12.7159 15.3333 12.8037 15.3333L13.0317 15.3333C13.2029 15.3333 13.3463 15.2036 13.3633 15.0332L13.63 12.3665C13.6496 12.1703 13.4948 12 13.2976 12L13.2976 12C13.03 12 12.8703 11.7005 13.0208 11.4792L13.7456 10.4135Z"/><path d="M14.9965 11.4844C15.1413 11.7061 14.9822 12 14.7174 12L14.7017 12C14.5044 12 14.3504 12.1703 14.37 12.3665L14.6366 15.0332C14.6537 15.2036 14.7971 15.3333 14.9683 15.3333L15.1963 15.3333C15.2841 15.3333 15.3683 15.2987 15.4307 15.237L15.9011 14.7717C15.9644 14.7091 16 14.6237 16 14.5347L16 13.4714C16 13.383 15.9649 13.2982 15.9024 13.2357L15.7147 13.048C15.5395 12.8728 15.6099 12.5745 15.845 12.4961L16.798 12.1784C17.0387 12.0982 17.2771 12.3055 17.2313 12.555L16.7397 15.2277C16.7271 15.2964 16.6932 15.3594 16.6429 15.4077L15.4301 16.5736C15.368 16.6333 15.2852 16.6667 15.1991 16.6667L15 16.6667C14.8159 16.6667 14.6667 16.8159 14.6667 17L14.6667 17.6667C14.6667 17.8508 14.5174 18 14.3333 18L13.6667 18C13.4826 18 13.3333 17.8508 13.3333 17.6667L13.3333 17C13.3333 16.8159 13.1841 16.6667 13 16.6667L12.8047 16.6667C12.7163 16.6667 12.6315 16.6315 12.569 16.569L11.4047 15.4047C11.3582 15.3582 11.3264 15.2989 11.3135 15.2344L10.7793 12.5632C10.7291 12.3123 10.9688 12.1007 11.2116 12.1816L12.155 12.4961C12.3901 12.5745 12.4605 12.8728 12.2853 13.048L12.0976 13.2357C12.0351 13.2982 12 13.383 12 13.4714L12 14.5347C12 14.6237 12.0356 14.7091 12.0989 14.7717L12.5693 15.237C12.6317 15.2987 12.7159 15.3333 12.8037 15.3333L13.0317 15.3333C13.2029 15.3333 13.3463 15.2036 13.3633 15.0332L13.63 12.3665C13.6496 12.1703 13.4955 12 13.2983 12L13.2965 12C13.0288 12 12.8703 11.7005 13.0208 11.4792L13.7456 10.4135C13.8794 10.2168 14.1702 10.2195 14.3003 10.4186L14.9965 11.4844Z"/></g></svg>

<svg xmlns="http://www.w3.org/2000/svg" fill="none" viewBox="0 0 28 28" focusable="false"><defs><linearGradient id="Barbados_svg__b" x1="0" x2="0" y1="4" y2="24" gradientUnits="userSpaceOnUse"><stop stop-color="#1132C7"/><stop offset="1" stop-color="#0522A5"/></linearGradient></defs><path fill="none" d="M0 0h28v28H0z"/><rect width="28" height="20" y="4" fill="#FFF" rx="3"/><rect width="28" height="20" y="4" rx="3"/><mask id="Barbados_svg__a" width="28" height="20" x="0" y="4" mask-type="alpha" maskUnits="userSpaceOnUse"><rect width="28" height="20" y="4" fill="#FFF" rx="3"/><rect width="28" height="20" y="4" stroke="#979797" stroke-opacity="0" stroke-width="0" rx="3"/></mask><g mask="url(#Barbados_svg__a)"><path fill="url(#Barbados_svg__b)" d="M0 4h28v20H0z"/><path d="M0 4h28v20H0z"/></g><g mask="url(#Barbados_svg__a)"><path fill="#08379D" d="M13.333 4H28v20H13.333z"/><path d="M13.333 4H28v20H13.333z"/></g><g mask="url(#Barbados_svg__a)"><path fill="#08379D" fill-rule="evenodd" d="M0 24h9.33V4H0z"/><path d="M9.33 24V4H0v20z"/></g><g mask="url(#Barbados_svg__a)"><path fill="#FFCC50" fill-rule="evenodd" d="M9.33 24h9.33V4H9.33z"/><path d="M18.66 24V4H9.33v20z"/></g><g mask="url(#Barbados_svg__a)"><path fill="#262626" fill-rule="evenodd" d="M13.74 10.41c.13-.2.43-.2.56 0l.69 1.07c.15.22-.01.52-.28.52h-.01c-.2 0-.35.17-.33.36l.26 2.67c.02.17.16.3.33.3h.23c.09 0 .17-.04.24-.1l.47-.46c.06-.07.1-.15.1-.24v-1.06a.35.35 0 0 0-.1-.24l-.19-.19a.328.328 0 0 1 .13-.55l.95-.32c.24-.08.48.13.44.38l-.5 2.67a.3.3 0 0 1-.09.18l-1.21 1.17q-.105.09-.24.09H15c-.19 0-.34.15-.34.34v.66c0 .19-.15.34-.33.34h-.67c-.18 0-.33-.15-.33-.34V17c0-.19-.15-.34-.33-.34h-.2c-.09 0-.17-.03-.24-.1L11.4 15.4a.3.3 0 0 1-.09-.17l-.54-2.67c-.05-.25.19-.46.44-.38l.94.31c.24.08.31.38.13.55l-.19.19a.34.34 0 0 0-.09.24v1.06q0 .135.09.24l.47.46c.07.06.15.1.24.1h.23c.17 0 .31-.13.33-.3l.27-2.67a.34.34 0 0 0-.34-.36c-.26 0-.42-.3-.27-.53z"/><path d="M14.99 11.48c.15.22-.01.52-.28.52h-.01c-.2 0-.35.17-.33.36l.26 2.67c.02.17.16.3.33.3h.23c.09 0 .17-.04.24-.1l.47-.46c.06-.07.1-.15.1-.24v-1.06a.35.35 0 0 0-.1-.24l-.19-.19a.328.328 0 0 1 .13-.55l.95-.32c.24-.08.48.13.44.38l-.5 2.67a.3.3 0 0 1-.09.18l-1.21 1.17q-.105.09-.24.09H15c-.19 0-.34.15-.34.34v.66c0 .19-.15.34-.33.34h-.67c-.18 0-.33-.15-.33-.34V17c0-.19-.15-.34-.33-.34h-.2c-.09 0-.17-.03-.24-.1L11.4 15.4a.3.3 0 0 1-.09-.17l-.54-2.67c-.05-.25.19-.46.44-.38l.94.31c.24.08.31.38.13.55l-.19.19a.34.34 0 0 0-.09.24v1.06q0 .135.09.24l.47.46c.07.06.15.1.24.1h.23c.17 0 .31-.13.33-.3l.27-2.67a.34.34 0 0 0-.34-.36c-.27 0-.42-.3-.27-.53l.72-1.06c.13-.2.43-.2.56 0z"/></g></svg>
